X: 13991
T: Frank Gilruth
R: reel
M: 4/4
K: Emajor
e2 dc BEGB|cFAc BEGB|e2dc BEGB|cedf eagf|
e2 dc BEGB|cFAc BEGB|e2dc BEGB|cede ge~e2|
agfe dece|Bedf gf~f2|agfe dece|Bedf ge~e2|
agfe dece|Bedf gf~f2|abaf gage|fedc Bagf||

